works/GoSurf/app/img/head3.svg

<svg width="26" height="24" viewBox="0 0 26 24" fill="none" xmlns="http://www.w3.org/2000/svg">
<path d="M17.3337 8.71002H0V10.8763H17.3337C20.3206 10.8763 22.75 8.44594 22.75 5.46002C22.75 2.47314 20.3196 0.0437012 17.3337 0.0437012C14.3468 0.0437012 11.9174 2.4741 11.9174 5.46002H14.0837C14.0837 3.66847 15.5421 2.21002 17.3337 2.21002C19.1252 2.21002 20.5837 3.66847 20.5837 5.46002C20.5837 7.25158 19.1252 8.71002 17.3337 8.71002Z" fill="#4AF6CD"/>
<path d="M20.5837 13.0437H0V15.21H20.5837C22.3752 15.21 23.8337 16.6685 23.8337 18.46C23.8337 20.2516 22.3752 21.71 20.5837 21.71C18.7921 21.71 17.3337 20.2516 17.3337 18.46H15.1674C15.1674 21.4469 17.5978 23.8763 20.5837 23.8763C23.5706 23.8763 26 21.4459 26 18.46C26 15.4731 23.5696 13.0437 20.5837 13.0437Z" fill="#4AF6CD"/>
</svg>

<svg width="26" height="24" fill="none" xmlns="http://www.w3.org/2000/svg"><path d="M17.334 8.71H0v2.166h17.334A5.423 5.423 0 0022.75 5.46 5.423 5.423 0 0017.334.044a5.423 5.423 0 00-5.417 5.416h2.167a3.254 3.254 0 013.25-3.25 3.254 3.254 0 013.25 3.25 3.254 3.254 0 01-3.25 3.25zM20.584 13.044H0v2.166h20.584a3.254 3.254 0 013.25 3.25 3.254 3.254 0 01-3.25 3.25 3.254 3.254 0 01-3.25-3.25h-2.167a5.423 5.423 0 005.417 5.416A5.423 5.423 0 0026 18.46a5.423 5.423 0 00-5.416-5.416z" fill="#4AF6CD"/></svg>
